papirus/22x22/apps/baka-mplayer.svg

<svg height="22" viewBox="0 0 22 22" width="22" xmlns="http://www.w3.org/2000/svg"><path d="m1.8000432 1.1579927c-.7999963.8159962-.7999963 4.7215779-.7999963 7.1939663 0 8.975958 5.1999757 12.647941 9.9999531 12.647941 4.799978 0 9.999953-3.672033 9.999953-12.647941 0-2.4480385 0-6.3779701-.799996-7.1939663-.799996-.8161462-6.099972 1.7165419-7.699964 3.3484843h-2.9999859c-1.5999925-1.6319424-6.8999677-4.1646305-7.6999639-3.3485843z" fill="#4d4d4d" fill-rule="evenodd"/><path d="m6.5000001 6.4999999a3.4999836 3.9999813 0 0 0 -3.5 4.0000001 3.4999836 3.9999813 0 0 0  3.5 4 3.4999836 3.9999813 0 0 0  3.4999999-4 3.4999836 3.9999813 0 0 0 -3.4999999-4.0000001zm8.9999999 0a3.4999836 3.9999813 0 0 0 -3.5 4.0000001 3.4999836 3.9999813 0 0 0  3.5 4 3.4999836 3.9999813 0 0 0  3.5-4 3.4999836 3.9999813 0 0 0 -3.5-4.0000001zm-8.9999999 1.5a1.9999906 2.4999883 0 0 1 2 2.5000001 1.9999906 2.4999883 0 0 1 -2 2.5 1.9999906 2.4999883 0 0 1 -2-2.5 1.9999906 2.4999883 0 0 1  2-2.5000001zm8.9999999 0a1.9999906 2.4999883 0 0 1 2 2.5000001 1.9999906 2.4999883 0 0 1 -2 2.5 1.9999906 2.4999883 0 0 1 -2-2.5 1.9999906 2.4999883 0 0 1  2-2.5000001zm-4.5 7.5000001c-.999996 0-1.9999999.293059-1.9999999.878906 0 1.171494.895005 2.121094 1.9999999 2.121094 1.104995 0 2-.9496 2-2.121094 0-.585847-1.000004-.878906-2-.878906z" opacity=".2"/><path d="m12.999991 15.879024c0 1.171494-.894996 2.12099-1.999991 2.12099-1.1049949 0-1.9999909-.949496-1.9999909-2.12099 0-1.171695 3.9999819-1.171695 3.9999819 0z" fill="#fff"/><path d="m6.4999837 6.0000377a3.4999836 3.9999813 0 0 0 -3.4999836 3.9999813 3.4999836 3.9999813 0 0 0  3.4999836 3.999981 3.4999836 3.9999813 0 0 0  3.4999834-3.999981 3.4999836 3.9999813 0 0 0 -3.4999834-3.9999813zm0 1.4999929a1.9999906 2.4999883 0 0 1 1.9999903 2.4999884 1.9999906 2.4999883 0 0 1 -1.9999903 2.499988 1.9999906 2.4999883 0 0 1 -1.9999906-2.499988 1.9999906 2.4999883 0 0 1  1.9999906-2.4999884z" fill="#fff" fill-rule="evenodd"/><path d="m15.499983 6.0000377a3.4999836 3.9999813 0 0 0 -3.499983 3.9999813 3.4999836 3.9999813 0 0 0  3.499983 3.999981 3.4999836 3.9999813 0 0 0  3.499984-3.999981 3.4999836 3.9999813 0 0 0 -3.499984-3.9999813zm0 1.4999929a1.9999906 2.4999883 0 0 1 1.999991 2.4999884 1.9999906 2.4999883 0 0 1 -1.999991 2.499988 1.9999906 2.4999883 0 0 1 -1.99999-2.499988 1.9999906 2.4999883 0 0 1  1.99999-2.4999884z" fill="#fff" fill-rule="evenodd"/><path d="m2.2949408 1.0010934c-.2245989.00565-.3950981.0552-.4950976.1571993-.7999963.8159962-.7997963 4.7207779-.7997963 7.1934663 0 .044.0017.0855.00195.1289994.00155-2.4754884.03405-6.0429717.7978463-6.8224681.7999962-.8157962 6.0999714 1.716792 7.6999639 3.3489844h2.9999859c1.599992-1.6321924 6.899968-4.1647806 7.699964-3.3487844.763996.7790464.796496 4.3667796.797996 6.8234681.0005-.044.002-.086.002-.1299994 0-2.4479885 0-6.3774702-.799996-7.1934663-.799996-.8157962-6.099972 1.7167919-7.699964 3.3489843h-2.9999859c-1.3999934-1.4281933-5.6329736-3.5455834-7.2049663-3.5059836z" fill="#fff" fill-rule="evenodd" opacity=".1"/><path d="m1.0019969 7.9805607c-.00005.1169995-.00195.2594988-.00195.3709983 0 8.975958 5.1999757 12.648441 9.9999531 12.648441 4.799978 0 9.999953-3.672483 9.999953-12.648441 0-.1109995-.002-.2534988-.002-.3699983-.0505 8.8799583-5.221475 12.5184413-9.997953 12.5184413-4.7764775 0-9.9474533-3.638483-9.9979531-12.5194413z" fill-rule="evenodd" opacity=".3"/></svg>

<?xml version="1.0" encoding="UTF-8" standalone="no"?>
<svg
   xmlns:dc="http://purl.org/dc/elements/1.1/"
   xmlns:cc="http://creativecommons.org/ns#"
   xmlns:rdf="http://www.w3.org/1999/02/22-rdf-syntax-ns#"
   xmlns:svg="http://www.w3.org/2000/svg"
   xmlns="http://www.w3.org/2000/svg"
   xmlns:sodipodi="http://sodipodi.sourceforge.net/DTD/sodipodi-0.dtd"
   xmlns:inkscape="http://www.inkscape.org/namespaces/inkscape"
   id="svg2"
   version="1.1"
   viewBox="0 0 22 22"
   inkscape:version="0.91 r13725"
   sodipodi:docname="baka-mplayer.svg"
   width="22"
   height="22">
  <defs
     id="defs17" />
  <sodipodi:namedview
     pagecolor="#ffffff"
     bordercolor="#666666"
     borderopacity="1"
     objecttolerance="10"
     gridtolerance="10"
     guidetolerance="10"
     inkscape:pageopacity="0"
     inkscape:pageshadow="2"
     inkscape:window-width="1600"
     inkscape:window-height="849"
     id="namedview15"
     showgrid="false"
     inkscape:zoom="16.15"
     inkscape:cx="15.609907"
     inkscape:cy="15.95171"
     inkscape:window-x="0"
     inkscape:window-y="0"
     inkscape:window-maximized="1"
     inkscape:current-layer="svg2" />
  <metadata
     id="metadata41">
    <rdf:RDF>
      <cc:Work
         rdf:about="">
        <dc:format>image/svg+xml</dc:format>
        <dc:type
           rdf:resource="http://purl.org/dc/dcmitype/StillImage" />
        <dc:title />
      </cc:Work>
    </rdf:RDF>
  </metadata>
  <path
     style="fill:#4d4d4d;fill-rule:evenodd"
     inkscape:connector-curvature="0"
     id="path37"
     d="M 1.8000432,1.1579927 C 1.0000469,1.9739889 1.0000469,5.8795706 1.0000469,8.351959 1.0000469,17.327917 6.2000226,20.9999 11,20.9999 c 4.799978,0 9.999953,-3.672033 9.999953,-12.647941 0,-2.4480385 0,-6.3779701 -0.799996,-7.1939663 -0.799996,-0.8161462 -6.099972,1.7165419 -7.699964,3.3484843 l -2.9999859,0 C 7.9000146,2.8745346 2.6000394,0.3418465 1.8000432,1.1578927 Z" />
  <path
     style="opacity:0.2;fill:#000000;fill-opacity:1"
     d="m 6.5000001,6.4999999 a 3.4999836,3.9999813 0 0 0 -3.5,4.0000001 3.4999836,3.9999813 0 0 0 3.5,4 A 3.4999836,3.9999813 0 0 0 10,10.5 3.4999836,3.9999813 0 0 0 6.5000001,6.4999999 Z m 8.9999999,0 A 3.4999836,3.9999813 0 0 0 12,10.5 a 3.4999836,3.9999813 0 0 0 3.5,4 3.4999836,3.9999813 0 0 0 3.5,-4 3.4999836,3.9999813 0 0 0 -3.5,-4.0000001 z m -8.9999999,1.5 a 1.9999906,2.4999883 0 0 1 2,2.5000001 1.9999906,2.4999883 0 0 1 -2,2.5 1.9999906,2.4999883 0 0 1 -2,-2.5 1.9999906,2.4999883 0 0 1 2,-2.5000001 z m 8.9999999,0 a 1.9999906,2.4999883 0 0 1 2,2.5000001 1.9999906,2.4999883 0 0 1 -2,2.5 1.9999906,2.4999883 0 0 1 -2,-2.5 1.9999906,2.4999883 0 0 1 2,-2.5000001 z M 11,15.5 c -0.999996,0 -1.9999999,0.293059 -1.9999999,0.878906 C 9.0000001,17.5504 9.8950051,18.5 11,18.5 c 1.104995,0 2,-0.9496 2,-2.121094 C 13,15.793059 11.999996,15.5 11,15.5 Z"
     id="path4175"
     inkscape:connector-curvature="0" />
  <path
     style="fill:#ffffff"
     d="m 12.999991,15.879024 c 0,1.171494 -0.894996,2.12099 -1.999991,2.12099 -1.1049949,0 -1.9999909,-0.949496 -1.9999909,-2.12099 0,-1.171695 3.9999819,-1.171695 3.9999819,0 z"
     id="path31"
     inkscape:connector-curvature="0" />
  <path
     d="M 6.4999837,6.0000377 A 3.4999836,3.9999813 0 0 0 3.0000001,10.000019 3.4999836,3.9999813 0 0 0 6.4999837,14 3.4999836,3.9999813 0 0 0 9.9999671,10.000019 3.4999836,3.9999813 0 0 0 6.4999837,6.0000377 Z m 0,1.4999929 A 1.9999906,2.4999883 0 0 1 8.499974,10.000019 1.9999906,2.4999883 0 0 1 6.4999837,12.500007 1.9999906,2.4999883 0 0 1 4.4999931,10.000019 1.9999906,2.4999883 0 0 1 6.4999837,7.5000306 Z"
     id="path4218"
     inkscape:connector-curvature="0"
     style="fill:#ffffff;fill-rule:evenodd" />
  <path
     d="M 15.499983,6.0000377 A 3.4999836,3.9999813 0 0 0 12,10.000019 3.4999836,3.9999813 0 0 0 15.499983,14 3.4999836,3.9999813 0 0 0 18.999967,10.000019 3.4999836,3.9999813 0 0 0 15.499983,6.0000377 Z m 0,1.4999929 a 1.9999906,2.4999883 0 0 1 1.999991,2.4999884 1.9999906,2.4999883 0 0 1 -1.999991,2.499988 1.9999906,2.4999883 0 0 1 -1.99999,-2.499988 1.9999906,2.4999883 0 0 1 1.99999,-2.4999884 z"
     id="path4221"
     inkscape:connector-curvature="0"
     style="fill:#ffffff;fill-rule:evenodd" />
  <path
     style="opacity:0.1;fill:#ffffff;fill-rule:evenodd"
     inkscape:connector-curvature="0"
     id="path4223"
     d="m 2.2949408,1.0010934 c -0.2245989,0.00565 -0.3950981,0.0552 -0.4950976,0.1571993 -0.7999963,0.8159962 -0.7997963,4.7207779 -0.7997963,7.1934663 0,0.044 0.0017,0.0855 0.00195,0.1289994 0.00155,-2.4754884 0.03405,-6.0429717 0.7978463,-6.8224681 0.7999962,-0.8157962 6.0999714,1.716792 7.6999639,3.3489844 l 2.9999859,0 c 1.599992,-1.6321924 6.899968,-4.1647806 7.699964,-3.3487844 0.763996,0.7790464 0.796496,4.3667796 0.797996,6.8234681 5e-4,-0.044 0.002,-0.086 0.002,-0.1299994 0,-2.4479885 0,-6.3774702 -0.799996,-7.1934663 -0.799996,-0.8157962 -6.099972,1.7167919 -7.699964,3.3489843 l -2.9999859,0 C 8.0998137,3.0792837 3.8668335,0.9618936 2.2948408,1.0014934 Z" />
  <path
     style="opacity:0.3;fill-rule:evenodd"
     inkscape:connector-curvature="0"
     id="path4228"
     d="m 1.0019969,7.9805607 c -5e-5,0.1169995 -0.00195,0.2594988 -0.00195,0.3709983 C 1.0000469,17.327517 6.2000226,21 11,21 c 4.799978,0 9.999953,-3.672483 9.999953,-12.648441 0,-0.1109995 -0.002,-0.2534988 -0.002,-0.3699983 C 20.947453,16.861519 15.776478,20.500002 11,20.500002 c -4.7764775,0 -9.9474533,-3.638483 -9.9979531,-12.5194413 z" />
</svg>
